src/assets/svg/icons/fa/nuevos/classic/duotone/face-expressionless classic duotone.svg

<svg xmlns="http://www.w3.org/2000/svg" viewBox="0 0 512 512"><!--! Font Awesome Pro 6.4.0 by @fontawesome - https://fontawesome.com License - https://fontawesome.com/license (Commercial License) Copyright 2023 Fonticons, Inc. --><defs><style>.fa-secondary{opacity:.4}</style></defs><path class="fa-primary" d="M144 192c-8.8 0-16 7.2-16 16s7.2 16 16 16h64c8.8 0 16-7.2 16-16s-7.2-16-16-16H144zm160 0c-8.8 0-16 7.2-16 16s7.2 16 16 16h64c8.8 0 16-7.2 16-16s-7.2-16-16-16H304z"/><path class="fa-secondary" d="M256 512A256 256 0 1 0 256 0a256 256 0 1 0 0 512zM160 336H352c8.8 0 16 7.2 16 16s-7.2 16-16 16H160c-8.8 0-16-7.2-16-16s7.2-16 16-16zM128 208c0-8.8 7.2-16 16-16h64c8.8 0 16 7.2 16 16s-7.2 16-16 16H144c-8.8 0-16-7.2-16-16zm176-16h64c8.8 0 16 7.2 16 16s-7.2 16-16 16H304c-8.8 0-16-7.2-16-16s7.2-16 16-16z"/></svg>

<svg xmlns="http://www.w3.org/2000/svg" viewBox="0 0 512 512"><defs><style>.fa-secondary{opacity:.4}</style></defs><path class="fa-primary" d="M208 192C216.8 192 224 199.2 224 208C224 216.8 216.8 224 208 224H144C135.2 224 128 216.8 128 208C128 199.2 135.2 192 144 192H208zM368 192C376.8 192 384 199.2 384 208C384 216.8 376.8 224 368 224H304C295.2 224 288 216.8 288 208C288 199.2 295.2 192 304 192H368z"/><path class="fa-secondary" d="M0 256C0 114.6 114.6 0 256 0C397.4 0 512 114.6 512 256C512 397.4 397.4 512 256 512C114.6 512 0 397.4 0 256zM160 336C151.2 336 144 343.2 144 352C144 360.8 151.2 368 160 368H352C360.8 368 368 360.8 368 352C368 343.2 360.8 336 352 336H160zM144 224H208C216.8 224 224 216.8 224 208C224 199.2 216.8 192 208 192H144C135.2 192 128 199.2 128 208C128 216.8 135.2 224 144 224zM304 192C295.2 192 288 199.2 288 208C288 216.8 295.2 224 304 224H368C376.8 224 384 216.8 384 208C384 199.2 376.8 192 368 192H304z"/></svg>
